**kern	**kern	**dynam
*part1	*part1	*part1
*staff2	*staff1	*
*I"Piano	*	*
*clefF4	*clefG2	*
*k[b-]	*k[b-]	*
=1	=1	=1
!	!LO:TX:b:i:t=poco animato	!
(4.d	(4.dd	.
8A	8a	.
4B-	4b-	.
=	=	=
4A	4a	.
4D	4d	.
4E)	4e)	.
=	=	=
*^	*^	*
2.D 2.F	(4.D	2.d 2.f	(4.d	.
.	8AA	.	8A	.
.	4BB-)	.	4B-)	.
=	=	=	=	=
2.E-X 2.G-X	(4.E-	2.e-X 2.g-X	(4.e-	.
.	8AA	.	8A	.
.	4C-X)	.	4B-)	.
=	=	=	=	=
2.D 2.F	(4.D	2.d 2.f	(4.d	.
.	8AA	.	8A	.
.	4BB-)	.	4B-)	.
=	=	=	=	=
!	!	!	!	!LO:DY:a
2.F 2.A-X	(4.F	2.f 2.a-X	(4.f	<
.	8AAn	.	8An	.
.	4BB-)	.	4B-)	.
=	=	=	=	=
2.E 2.G	(4.E	2.e-X 2.g	(4.e-	.
.	8AA	.	8A	.
.	4BB-)	.	4B-)	.
=	=	=	=	=
2.E-X 2.G-X	(4.E-	2.e-X 2.g-X	(4.e-	.
.	8AA	.	8A	.
.	4BB-)	.	4B-)	.
*v	*v	*	*	*
*	*v	*v	*
=	=	=
*-	*-	*-
!!!system-decoration: {(s1,s2)}
